src/assets/Icons/swap.svg

<?xml version="1.0" encoding="iso-8859-1"?>
<!-- Generator: Adobe Illustrator 19.0.0, SVG Export Plug-In . SVG Version: 6.00 Build 0)  -->
<svg version="1.1" id="Layer_1" xmlns="http://www.w3.org/2000/svg" xmlns:xlink="http://www.w3.org/1999/xlink" x="0px" y="0px"
	 viewBox="0 0 512 512" style="enable-background:new 0 0 512 512;" xml:space="preserve">
<g>
	<g>
		<g>
			<path d="M72.837,213.333H320c11.782,0,21.333-9.551,21.333-21.333c0-11.782-9.551-21.333-21.333-21.333H72.837l48.915-48.915
				c8.331-8.331,8.331-21.839,0-30.17c-8.331-8.331-21.839-8.331-30.17,0L6.248,176.915c-0.497,0.497-0.967,1.02-1.413,1.564
				c-0.202,0.246-0.378,0.506-0.567,0.759c-0.228,0.304-0.463,0.601-0.675,0.918c-0.203,0.303-0.379,0.618-0.565,0.929
				c-0.171,0.286-0.351,0.566-0.509,0.861c-0.17,0.317-0.314,0.644-0.466,0.968c-0.145,0.307-0.298,0.609-0.429,0.924
				c-0.13,0.315-0.236,0.637-0.35,0.957c-0.121,0.337-0.25,0.669-0.354,1.013c-0.097,0.32-0.168,0.645-0.249,0.969
				c-0.089,0.351-0.187,0.698-0.258,1.056c-0.074,0.375-0.118,0.753-0.172,1.13c-0.044,0.311-0.104,0.618-0.135,0.933
				c-0.138,1.4-0.138,2.811,0,4.211c0.031,0.315,0.09,0.621,0.135,0.933c0.054,0.377,0.098,0.756,0.173,1.13
				c0.071,0.358,0.169,0.704,0.258,1.055c0.081,0.324,0.152,0.649,0.249,0.969c0.104,0.344,0.233,0.677,0.354,1.013
				c0.115,0.32,0.22,0.642,0.35,0.957c0.13,0.315,0.284,0.616,0.429,0.923c0.153,0.324,0.297,0.651,0.467,0.969
				c0.158,0.294,0.337,0.573,0.508,0.859c0.186,0.312,0.362,0.627,0.565,0.931c0.211,0.316,0.446,0.612,0.673,0.916
				c0.19,0.254,0.366,0.514,0.569,0.761c0.443,0.54,0.91,1.059,1.403,1.552c0.004,0.004,0.006,0.008,0.01,0.011l85.333,85.333
				c8.331,8.331,21.839,8.331,30.17,0c8.331-8.331,8.331-21.839,0-30.17L72.837,213.333z"/>
			<path d="M507.164,333.522c0.204-0.248,0.38-0.509,0.571-0.764c0.226-0.302,0.461-0.598,0.671-0.913
				c0.204-0.304,0.38-0.62,0.566-0.932c0.17-0.285,0.349-0.564,0.506-0.857c0.17-0.318,0.315-0.646,0.468-0.971
				c0.145-0.306,0.297-0.607,0.428-0.921c0.13-0.315,0.236-0.637,0.35-0.957c0.121-0.337,0.25-0.669,0.354-1.013
				c0.097-0.32,0.168-0.646,0.249-0.969c0.089-0.351,0.187-0.698,0.258-1.055c0.074-0.375,0.118-0.753,0.173-1.13
				c0.044-0.311,0.104-0.617,0.135-0.933c0.138-1.4,0.138-2.811,0-4.211c-0.031-0.315-0.09-0.621-0.135-0.933
				c-0.054-0.377-0.098-0.756-0.173-1.13c-0.071-0.358-0.169-0.704-0.258-1.055c-0.081-0.324-0.152-0.649-0.249-0.969
				c-0.104-0.344-0.233-0.677-0.354-1.013c-0.115-0.32-0.22-0.642-0.35-0.957c-0.13-0.314-0.283-0.615-0.428-0.921
				c-0.153-0.325-0.297-0.653-0.468-0.971c-0.157-0.293-0.336-0.572-0.506-0.857c-0.186-0.312-0.363-0.628-0.566-0.932
				c-0.211-0.315-0.445-0.611-0.671-0.913c-0.191-0.255-0.368-0.516-0.571-0.764c-0.439-0.535-0.903-1.05-1.392-1.54
				c-0.007-0.008-0.014-0.016-0.021-0.023l-85.333-85.333c-8.331-8.331-21.839-8.331-30.17,0s-8.331,21.839,0,30.17l48.915,48.915
				H192c-11.782,0-21.333,9.551-21.333,21.333s9.551,21.333,21.333,21.333h247.163l-48.915,48.915
				c-8.331,8.331-8.331,21.839,0,30.17s21.839,8.331,30.17,0l85.333-85.333c0.008-0.008,0.014-0.016,0.021-0.023
				C506.261,334.572,506.725,334.057,507.164,333.522z"/>
		</g>
	</g>
</g>
<g>
</g>
<g>
</g>
<g>
</g>
<g>
</g>
<g>
</g>
<g>
</g>
<g>
</g>
<g>
</g>
<g>
</g>
<g>
</g>
<g>
</g>
<g>
</g>
<g>
</g>
<g>
</g>
<g>
</g>
</svg>

<?xml version="1.0" encoding="UTF-8" standalone="no"?>
<!DOCTYPE svg PUBLIC "-//W3C//DTD SVG 1.1//EN" "http://www.w3.org/Graphics/SVG/1.1/DTD/svg11.dtd">
<svg width="100%" height="100%" viewBox="0 0 512 512" version="1.1" xmlns="http://www.w3.org/2000/svg" xmlns:xlink="http://www.w3.org/1999/xlink" xml:space="preserve" xmlns:serif="http://www.serif.com/" style="fill-rule:evenodd;clip-rule:evenodd;stroke-linejoin:round;stroke-miterlimit:2;">
    <g>
        <g>
            <g>
                <path d="M72.837,213.333L320,213.333C331.782,213.333 341.333,203.782 341.333,192C341.333,180.218 331.782,170.667 320,170.667L72.837,170.667L121.752,121.752C130.083,113.421 130.083,99.913 121.752,91.582C113.421,83.251 99.913,83.251 91.582,91.582L6.248,176.915C5.751,177.412 5.281,177.935 4.835,178.479C4.633,178.725 4.457,178.985 4.268,179.238C4.04,179.542 3.805,179.839 3.593,180.156C3.39,180.459 3.214,180.774 3.028,181.085C2.857,181.371 2.677,181.651 2.519,181.946C2.349,182.263 2.205,182.59 2.053,182.914C1.908,183.221 1.755,183.523 1.624,183.838C1.494,184.153 1.388,184.475 1.274,184.795C1.153,185.132 1.024,185.464 0.92,185.808C0.823,186.128 0.752,186.453 0.671,186.777C0.582,187.128 0.484,187.475 0.413,187.833C0.339,188.208 0.295,188.586 0.241,188.963C0.197,189.274 0.137,189.581 0.106,189.896C-0.032,191.296 -0.032,192.707 0.106,194.107C0.137,194.422 0.196,194.728 0.241,195.04C0.295,195.417 0.339,195.796 0.414,196.17C0.485,196.528 0.583,196.874 0.672,197.225C0.753,197.549 0.824,197.874 0.921,198.194C1.025,198.538 1.154,198.871 1.275,199.207C1.39,199.527 1.495,199.849 1.625,200.164C1.755,200.479 1.909,200.78 2.054,201.087C2.207,201.411 2.351,201.738 2.521,202.056C2.679,202.35 2.858,202.629 3.029,202.915C3.215,203.227 3.391,203.542 3.594,203.846C3.805,204.162 4.04,204.458 4.267,204.762C4.457,205.016 4.633,205.276 4.836,205.523C5.279,206.063 5.746,206.582 6.239,207.075C6.243,207.079 6.245,207.083 6.249,207.086L91.582,292.419C99.913,300.75 113.421,300.75 121.752,292.419C130.083,284.088 130.083,270.58 121.752,262.249L72.837,213.333Z" style="fill:rgb(162,162,162);fill-rule:nonzero;"/>
                <path d="M507.164,333.522C507.368,333.274 507.544,333.013 507.735,332.758C507.961,332.456 508.196,332.16 508.406,331.845C508.61,331.541 508.786,331.225 508.972,330.913C509.142,330.628 509.321,330.349 509.478,330.056C509.648,329.738 509.793,329.41 509.946,329.085C510.091,328.779 510.243,328.478 510.374,328.164C510.504,327.849 510.61,327.527 510.724,327.207C510.845,326.87 510.974,326.538 511.078,326.194C511.175,325.874 511.246,325.548 511.327,325.225C511.416,324.874 511.514,324.527 511.585,324.17C511.659,323.795 511.703,323.417 511.758,323.04C511.802,322.729 511.862,322.423 511.893,322.107C512.031,320.707 512.031,319.296 511.893,317.896C511.862,317.581 511.803,317.275 511.758,316.963C511.704,316.586 511.66,316.207 511.585,315.833C511.514,315.475 511.416,315.129 511.327,314.778C511.246,314.454 511.175,314.129 511.078,313.809C510.974,313.465 510.845,313.132 510.724,312.796C510.609,312.476 510.504,312.154 510.374,311.839C510.244,311.525 510.091,311.224 509.946,310.918C509.793,310.593 509.649,310.265 509.478,309.947C509.321,309.654 509.142,309.375 508.972,309.09C508.786,308.778 508.609,308.462 508.406,308.158C508.195,307.843 507.961,307.547 507.735,307.245C507.544,306.99 507.367,306.729 507.164,306.481C506.725,305.946 506.261,305.431 505.772,304.941C505.765,304.933 505.758,304.925 505.751,304.918L420.418,219.585C412.087,211.254 398.579,211.254 390.248,219.585C381.917,227.916 381.917,241.424 390.248,249.755L439.163,298.67L192,298.67C180.218,298.67 170.667,308.221 170.667,320.003C170.667,331.785 180.218,341.336 192,341.336L439.163,341.336L390.248,390.251C381.917,398.582 381.917,412.09 390.248,420.421C398.579,428.752 412.087,428.752 420.418,420.421L505.751,335.088C505.759,335.08 505.765,335.072 505.772,335.065C506.261,334.572 506.725,334.057 507.164,333.522Z" style="fill:rgb(162,162,162);fill-rule:nonzero;"/>
            </g>
        </g>
    </g>
</svg>
